X: 1576
T: Pervane
C: Yesârî Âsım Arsoy
O: Turkey
F: http://compmusic.upf.edu/node/140
N: saba--sarki--curcuna--pervane--yesari_asim_arsoy
N: makam= saba
N: form= sarki
N: usul= curcuna = 10/8
M: 10/8
L: 1/16
K: C _2/4B _3/4d  
Q: 1/4=216
%%MIDI tuningsystem comma53
z2 cd2c BA Bc  | Bc d/c/B/A/ GA4-A  | \
w:  Per *  va  |  ne  *  gi *  *  *  *  bi   | 
c3/2B/ A_1/4B2c2c3  | 
w:  ay *  *  rı la mam   | 
dc Bc2d fe dc/B/  | c8-c2  | cB AB c/d/c/B/ A/G/A3  | 
w:  aşk  *  *  a te *  şin  |  den    |  SAZ  | 
z2 cd2c BA Bc  | Bc d/c/B/A/ GA4-A  | \
w:  Per *  va  |  ne  *  gi *  *  *  *  bi   | 
c3/2B/ A_1/4B2c2c3  | 
w:  ay *  *  rı la mam   | 
dc Bc2d fe dc/B/  | c8-c2  | AB cd e/f/e/d/ c/B/c3  | 
w:  aşk  *  *  a te *  şin  |  den    |  SAZ  | 
g3f/e/ f_7/8a2a2g  | g2 _7/8ag ff ef3  | \
w:  Dî *  *  *  vâ  |  ne  *  gi *  bi   | 
_7/8ag fe dd cd cB  | 
w:  ru *  *  hum  *  o *  nun   | 
A3f2e/d/ cc BB/A/  | A8-A2  | AB cd e/f/e/d/ c/B/c3  | 
w:  koş tu  pe *  *  şin  |  den    |  SAZ  | 
g3f/e/ f_7/8a2a2g  | g2 _7/8ag ff ef3  | \
w:  Dî *  *  *  vâ  |  ne  *  gi *  bi   | 
_7/8ag fe dd cd cB  | 
w:  ru *  *  hum  *  o *  nun   | 
A3f2e/d/ cc BB/A/  | A8-A2  | z12  | c12  | c12  | \
w:  koş tu  pe *  *  şin  |  den    |  |  SAZ  |   | 
c2B2A4B4  | c2B2A4B4  | 
w:   |   | 
c8c4  | d8e4  | f4e2d2c2B2  | c12  | c12  | c2B2A4B2A2  | \
w:   |   |   |   |  Gel   |  yal  | 
A4B4c2d2  | d6c2B4  | 
w:  va *  rı  |  rım   | 
e12  | f2e2d4d2c2  | c2B2c16-c4  | g8g4  | \
w:  ok  |  şa  *  *  be  |  ni   |  kaç ma   | 
g4_7/8a4a2g2  | g12  | g12  | _7/8a4g2f2f4  | 
w:  e şin  |  den    |   |  kaç *  *  ma   | 
e2d2e2d2c2B2  | c16B2A2B4  | z10  | g3f/e/ f_7/8a2a2g  | \
w:  e *  şin  |  den    |  |  Dî *  *  *  vâ  | 
g2 _7/8ag ff ef3  | 
w:  ne  *  gi *  bi   | 
_7/8ag fe dd cd cB  | A3f2e/d/ cc BB/A/  | A8-A2  | 
w:  ru *  *  hum  *  o *  nun   |  koş tu  pe *  *  şin  |  den    | 
|


